X:116
M:6/8
L:1/8
Q:3/8=100
K:D
|:EFG FED|F2 G A2 A|EFG FED|[c2C2][BB,][A2A,2][AA,]|\
EFG FED|F2 G A2 A|Bcd Agf|edc d3:|

